src/pos-icons/car-windshield.svg

<svg height="24" viewBox="0 0 24 24" width="24" xmlns="http://www.w3.org/2000/svg"><path d="m22.63 15.5-2.42-9.65a1 1 0 0 0 -1.07-.75c-1.34.14-5 .4-7.14.4s-5.8-.26-7.14-.4a1 1 0 0 0 -1.07.75l-2.42 9.65a1.5 1.5 0 0 0 1.18 1.86 61.5 61.5 0 0 0 9.45.64 61.5 61.5 0 0 0 9.45-.64 1.5 1.5 0 0 0 1.18-1.86z"/></svg>

<?xml version="1.0" encoding="UTF-8"?><!DOCTYPE svg PUBLIC "-//W3C//DTD SVG 1.1//EN" "http://www.w3.org/Graphics/SVG/1.1/DTD/svg11.dtd"><svg xmlns="http://www.w3.org/2000/svg" xmlns:xlink="http://www.w3.org/1999/xlink" version="1.1" id="mdi-car-windshield" width="24" height="24" viewBox="0 0 24 24"><path d="M22.63 15.5L20.21 5.85A1 1 0 0 0 19.14 5.1C17.8 5.24 14.14 5.5 12 5.5S6.2 5.24 4.86 5.1A1 1 0 0 0 3.79 5.85L1.37 15.5A1.5 1.5 0 0 0 2.55 17.36A61.5 61.5 0 0 0 12 18A61.5 61.5 0 0 0 21.45 17.36A1.5 1.5 0 0 0 22.63 15.5Z" /></svg>
